static/img/kroki/aeaddf5c54dccf386630c6f565ed3fb6.svg

<?xml version="1.0" encoding="us-ascii" standalone="no"?><svg xmlns="http://www.w3.org/2000/svg" xmlns:xlink="http://www.w3.org/1999/xlink" contentStyleType="text/css" height="252px" preserveAspectRatio="none" style="width:321px;height:252px;" version="1.1" viewBox="0 0 321 252" width="321px" zoomAndPan="magnify"><defs/><g><!--class kubernetes_cron_job--><g id="elem_kubernetes_cron_job"><rect codeLine="22" fill="#3D176E" height="39.7891" id="kubernetes_cron_job" rx="2.5" ry="2.5" style="stroke:#000D19;stroke-width:0.5;" width="215" x="7" y="106.79"/><ellipse cx="22" cy="126.6845" fill="#ADD1B2" rx="11" ry="11" style="stroke:#181818;stroke-width:1.0;"/><path d="M24.9688,132.3252 Q24.3906,132.622 23.75,132.7627 Q23.1094,132.9189 22.4063,132.9189 Q19.9063,132.9189 18.5781,131.2783 Q17.2656,129.622 17.2656,126.497 Q17.2656,123.372 18.5781,121.7158 Q19.9063,120.0595 22.4063,120.0595 Q23.1094,120.0595 23.75,120.2158 Q24.4063,120.372 24.9688,120.6689 L24.9688,123.3877 Q24.3438,122.8095 23.75,122.5439 Q23.1563,122.2627 22.5313,122.2627 Q21.1875,122.2627 20.5,123.3408 Q19.8125,124.4033 19.8125,126.497 Q19.8125,128.5908 20.5,129.6689 Q21.1875,130.7314 22.5313,130.7314 Q23.1563,130.7314 23.75,130.4658 Q24.3438,130.1845 24.9688,129.6064 L24.9688,132.3252 Z " fill="#000000"/><text fill="#D9B8FF" font-family="Helvetica" font-size="17" lengthAdjust="spacing" textLength="173" x="41" y="132.5698">kubernetes_cron_job</text></g><!--class kubernetes_job--><g id="elem_kubernetes_job"><rect codeLine="24" fill="#3D176E" height="39.7891" id="kubernetes_job" rx="2.5" ry="2.5" style="stroke:#000D19;stroke-width:0.5;" width="170" x="109.5" y="206.58"/><ellipse cx="124.5" cy="226.4745" fill="#ADD1B2" rx="11" ry="11" style="stroke:#181818;stroke-width:1.0;"/><path d="M127.4688,232.1152 Q126.8906,232.412 126.25,232.5527 Q125.6094,232.7089 124.9063,232.7089 Q122.4063,232.7089 121.0781,231.0683 Q119.7656,229.412 119.7656,226.287 Q119.7656,223.162 121.0781,221.5058 Q122.4063,219.8495 124.9063,219.8495 Q125.6094,219.8495 126.25,220.0058 Q126.9063,220.162 127.4688,220.4589 L127.4688,223.1777 Q126.8438,222.5995 126.25,222.3339 Q125.6563,222.0527 125.0313,222.0527 Q123.6875,222.0527 123,223.1308 Q122.3125,224.1933 122.3125,226.287 Q122.3125,228.3808 123,229.4589 Q123.6875,230.5214 125.0313,230.5214 Q125.6563,230.5214 126.25,230.2558 Q126.8438,229.9745 127.4688,229.3964 L127.4688,232.1152 Z " fill="#000000"/><text fill="#D9B8FF" font-family="Helvetica" font-size="17" lengthAdjust="spacing" textLength="128" x="143.5" y="232.3598">kubernetes_job</text></g><!--class kubernetes_namespace--><g id="elem_kubernetes_namespace"><rect codeLine="26" fill="#3D176E" height="39.7891" id="kubernetes_namespace" rx="2.5" ry="2.5" style="stroke:#000D19;stroke-width:0.5;" width="239" x="75" y="7"/><ellipse cx="90" cy="26.8945" fill="#ADD1B2" rx="11" ry="11" style="stroke:#181818;stroke-width:1.0;"/><path d="M92.9688,32.5352 Q92.3906,32.832 91.75,32.9727 Q91.1094,33.1289 90.4063,33.1289 Q87.9063,33.1289 86.5781,31.4883 Q85.2656,29.832 85.2656,26.707 Q85.2656,23.582 86.5781,21.9258 Q87.9063,20.2695 90.4063,20.2695 Q91.1094,20.2695 91.75,20.4258 Q92.4063,20.582 92.9688,20.8789 L92.9688,23.5977 Q92.3438,23.0195 91.75,22.7539 Q91.1563,22.4727 90.5313,22.4727 Q89.1875,22.4727 88.5,23.5508 Q87.8125,24.6133 87.8125,26.707 Q87.8125,28.8008 88.5,29.8789 Q89.1875,30.9414 90.5313,30.9414 Q91.1563,30.9414 91.75,30.6758 Q92.3438,30.3945 92.9688,29.8164 L92.9688,32.5352 Z " fill="#000000"/><text fill="#D9B8FF" font-family="Helvetica" font-size="17" lengthAdjust="spacing" textLength="197" x="109" y="32.7798">kubernetes_namespace</text></g><!--link kubernetes_cron_job to kubernetes_job--><g id="link_kubernetes_cron_job_kubernetes_job"><path codeLine="28" d="M130.31,147.01 C144.33,164.15 160.9112,184.4158 174.9312,201.5558 " fill="none" id="kubernetes_cron_job-to-kubernetes_job" style="stroke:#1A83AF;stroke-width:2.0;"/><polygon fill="#1A83AF" points="178.73,206.2,176.1279,196.7011,175.5643,202.3298,169.9356,201.7662,178.73,206.2" style="stroke:#1A83AF;stroke-width:2.0;"/></g><!--link kubernetes_namespace to kubernetes_cron_job--><g id="link_kubernetes_namespace_kubernetes_cron_job"><path codeLine="29" d="M178.69,47.22 C164.67,64.36 148.0888,84.6258 134.0688,101.7658 " fill="none" id="kubernetes_namespace-to-kubernetes_cron_job" style="stroke:#1A83AF;stroke-width:2.0;"/><polygon fill="#1A83AF" points="130.27,106.41,139.0644,101.9762,133.4357,102.5398,132.8721,96.9111,130.27,106.41" style="stroke:#1A83AF;stroke-width:2.0;"/></g><!--link kubernetes_namespace to kubernetes_job--><g id="link_kubernetes_namespace_kubernetes_job"><path codeLine="30" d="M209.24,47.07 C219.98,62.32 233.64,84.69 239.5,106.79 C244.03,123.89 244.03,129.49 239.5,146.58 C233.64,168.68 223.4348,186.1545 212.6948,201.4045 " fill="none" id="kubernetes_namespace-to-kubernetes_job" style="stroke:#1A83AF;stroke-width:2.0;"/><polygon fill="#1A83AF" points="209.24,206.31,217.6926,201.2549,212.119,202.222,211.1518,196.6485,209.24,206.31" style="stroke:#1A83AF;stroke-width:2.0;"/></g><!--SRC=[bP9FJuD04CNlV8fDE3S1YG8N4oHfzD8OwysOPc5domhiajd5fXg_kz1Qi_AdZTTvltdpPZA5O42WRioUr51dWDhHfP0DHLgJ157jKbKf92xdb0VXK5mgQIu2Are3kOVg7Op8wP1uBaHUIj2QN5dI7StBBQfMigEzGIfr9u4q5fLMLEl461HPQy0Am-8iudn83atTWFdX3OmmXGpm1_4yZ_dn4BauwkpUlyHQV03nxQEjb85HpD680tKsPKzO8KUBdlJPZ8-KCI6tvDggFHqpeGJyKryNbAbTJtDQQNkCDe2WpBw1TBGLn17ZuIJyC0Vd_UL8sNQFAi60tkIevEPDPUJJ-HghiuBirkxUAOU3FEMtU77z90gIvUlYTc3fJ1hDDPmS_zVLDNm3]--></g></svg>

<svg xmlns="http://www.w3.org/2000/svg" width="321" height="252" viewBox="0 0 321 252"><rect width="215" height="39.789" x="7" y="106.79" fill="#3D176E" rx="2.5" ry="2.5" style="stroke:#000d19;stroke-width:.5"/><circle cx="22" cy="126.684" r="11" fill="#ADD1B2" style="stroke:#181818;stroke-width:1"/><path d="M24.969 132.325q-.578.297-1.219.438-.64.156-1.344.156-2.5 0-3.828-1.64-1.312-1.657-1.312-4.782t1.312-4.781q1.328-1.656 3.828-1.656.703 0 1.344.156.656.156 1.219.453v2.719q-.625-.579-1.219-.844-.594-.281-1.219-.281-1.343 0-2.031 1.078-.687 1.062-.687 3.156t.687 3.172q.688 1.062 2.031 1.062.625 0 1.219-.265.594-.281 1.219-.86z"/><text x="41" y="132.57" fill="#D9B8FF" font-family="Helvetica" font-size="17" textLength="173">kubernetes_cron_job</text><rect width="170" height="39.789" x="109.5" y="206.58" fill="#3D176E" rx="2.5" ry="2.5" style="stroke:#000d19;stroke-width:.5"/><circle cx="124.5" cy="226.475" r="11" fill="#ADD1B2" style="stroke:#181818;stroke-width:1"/><path d="M127.469 232.115q-.578.297-1.219.438-.64.156-1.344.156-2.5 0-3.828-1.64-1.312-1.657-1.312-4.782t1.312-4.781q1.328-1.656 3.828-1.656.703 0 1.344.156.656.156 1.219.453v2.719q-.625-.578-1.219-.844-.594-.281-1.219-.281-1.344 0-2.031 1.078-.687 1.062-.687 3.156t.687 3.172q.688 1.062 2.031 1.062.625 0 1.219-.265.594-.281 1.219-.86z"/><text x="143.5" y="232.36" fill="#D9B8FF" font-family="Helvetica" font-size="17" textLength="128">kubernetes_job</text><rect width="239" height="39.789" x="75" y="7" fill="#3D176E" rx="2.5" ry="2.5" style="stroke:#000d19;stroke-width:.5"/><circle cx="90" cy="26.895" r="11" fill="#ADD1B2" style="stroke:#181818;stroke-width:1"/><path d="M92.969 32.535q-.578.297-1.219.438-.64.156-1.344.156-2.5 0-3.828-1.64-1.312-1.657-1.312-4.782t1.312-4.781q1.328-1.656 3.828-1.656.703 0 1.344.156.656.156 1.219.453v2.719q-.625-.578-1.219-.844-.594-.281-1.219-.281-1.344 0-2.031 1.078-.687 1.062-.687 3.156t.687 3.172q.688 1.062 2.031 1.062.625 0 1.219-.265.594-.281 1.219-.86z"/><text x="109" y="32.78" fill="#D9B8FF" font-family="Helvetica" font-size="17" textLength="197">kubernetes_namespace</text><path fill="none" d="m130.31 147.01 44.621 54.546" style="stroke:#1a83af;stroke-width:2"/><path fill="#1A83AF" d="m178.73 206.2-2.602-9.499-.564 5.629-5.628-.564z" style="stroke:#1a83af;stroke-width:2"/><path fill="none" d="m178.69 47.22-44.621 54.546" style="stroke:#1a83af;stroke-width:2"/><path fill="#1A83AF" d="m130.27 106.41 8.794-4.434-5.628.564-.564-5.629z" style="stroke:#1a83af;stroke-width:2"/><path fill="none" d="M209.24 47.07c10.74 15.25 24.4 37.62 30.26 59.72 4.53 17.1 4.53 22.7 0 39.79-5.86 22.1-16.065 39.575-26.805 54.825" style="stroke:#1a83af;stroke-width:2"/><path fill="#1A83AF" d="m209.24 206.31 8.453-5.055-5.574.967-.967-5.573z" style="stroke:#1a83af;stroke-width:2"/></svg>
